X:229
T: ICH STAND AUF HOHEM BERGE
N: E0115
O: Europa, Mitteleuropa, Deutschland, Lahnkreis; Dillkreis; Rheinland
R: erzaehlendes Volks - Lied, Schalk -, Schelmen - Lied, betrogene Liebe
M: 3/4
L: 1/8
K: G
G2 | G2D2BB | B2G2
d2 | e2d2cc | B4
GG | e2eege | edd2
dg | e2d2cc | B4

